X:13
T:Queen Caroline’s Waltz. WI.013
M:3/4
L:1/8
Q:1/4=120
C:”1838 Waltz”
S:Wm Irwin, 1838 MS, AGG’s Transcription
R:.Waltz
O:England
A:Lake District
Z:vmp.Chris Partington.2005
K:D
A2|a3 gfe|edcdef|g3 fed|cde2A2|\
a3 gfe|edcdef|g3ABc|edd2|”_’etc'”zzz|]

